48x48/apps/morpheus.svg

<svg xmlns="http://www.w3.org/2000/svg" width="48" height="48" version="1">
 <rect style="fill:#f4f4f7" width="39" height="39" x="4.5" y="4.5" rx="1.95" ry="1.95"/>
 <rect style="opacity:0.2" width="40" height="40" x="4" y="5" rx="2" ry="2"/>
 <path style="fill:#f73a3a" d="M 6,4 C 4.892,4 4,4.892 4,6 V 29.974609 L 14.267578,27.693359 16,15 10.121094,4 Z"/>
 <path style="fill:#f4f4f7" d="M 10.121094,4 16,15 H 33 L 42.089844,4.0097656 C 42.059392,4.0084016 42.0308,4 42,4 Z"/>
 <path style="fill:#357cca" d="M 36,29 22,34 21,44 H 26.792969 42 c 1.108,0 2,-0.892 2,-2 V 38.765625 C 43.97946,38.658747 43.9506,38.545853 43.94727,38.451172 43.948484,38.343584 43.981498,38.234041 44,38.125 v -5.669922 z"/>
 <path style="fill:#cccccc" d="M 42.089844,4.0097656 33,15 l 3,14 8,3.455078 V 6 C 44,4.9228002 43.154861,4.0574708 42.089844,4.0097656 Z"/>
 <path style="opacity:0.2" d="M 16,16 14.267422,28.693882 22,35 36,30 33,16 Z"/>
 <path style="fill:#fece00" d="M 16,15 14.267422,27.693882 22,34 36,29 33,15 Z"/>
 <path style="opacity:0.2;fill:#f4f4f7" d="M 6,4 C 4.892,4 4,4.892 4,6 V 7 C 4,5.892 4.892,5 6,5 h 36 c 1.108,0 2,0.892 2,2 V 6 C 44,4.892 43.108,4 42,4 Z"/>
 <path style="opacity:0.2" d="M 33.169922,15.794922 33,16 l 3,14 8,3.455078 v -1 L 36,29 Z"/>
 <path style="opacity:0.1" d="M 10.121094,5 16,16 H 33 L 42.089844,5.0097656 C 42.059392,5.0084016 42.0308,5 42,5 H 41.271484 L 33,15 H 16 L 10.65625,5 Z"/>
 <path style="fill:#f4f4f7" d="M 14.267578,27.693359 4,29.974609 V 42 c 0,1.108 0.892,2 2,2 H 18.016419 21 l 1,-10 z"/>
</svg>

<svg xmlns="http://www.w3.org/2000/svg" width="48" height="48" version="1"><rect style="fill:#f4f4f7" width="39" height="39" x="4.5" y="4.5" rx="1.95" ry="1.95"/><rect style="opacity:.2" width="40" height="40" x="4" y="5" rx="2" ry="2"/><path style="fill:#f73a3a" d="M6 4c-1.108 0-2 .892-2 2v23.975l10.268-2.282L16 15 10.121 4z"/><path style="fill:#f4f4f7" d="M10.121 4 16 15h17l9.09-10.99C42.06 4.008 42.03 4 42 4z"/><path style="fill:#357cca" d="m36 29-14 5-1 10h21c1.108 0 2-.892 2-2v-3.234c-.02-.107-.05-.22-.053-.315.001-.107.034-.217.053-.326v-5.67z"/><path style="fill:#ccc" d="M42.09 4.01 33 15l3 14 8 3.455V6a1.99 1.99 0 0 0-1.91-1.99z"/><path style="opacity:.2" d="m16 16-1.733 12.694L22 35l14-5-3-14z"/><path style="fill:#fece00" d="m16 15-1.733 12.694L22 34l14-5-3-14z"/><path style="opacity:.2;fill:#f4f4f7" d="M6 4c-1.108 0-2 .892-2 2v1c0-1.108.892-2 2-2h36c1.108 0 2 .892 2 2V6c0-1.108-.892-2-2-2z"/><path style="opacity:.2" d="M33.17 15.795 33 16l3 14 8 3.455v-1L36 29z"/><path style="opacity:.1" d="M10.121 5 16 16h17l9.09-10.99C42.06 5.008 42.03 5 42 5h-.729L33 15H16L10.656 5z"/><path style="fill:#f4f4f7" d="M14.268 27.693 4 29.975V42c0 1.108.892 2 2 2h15l1-10z"/></svg>
